X: 4
T: Charlie Harris's
R: polka
M: 2/4
L: 1/8
K: Dmaj
|: dB | AF DF | EF DF | AF AB | e2 d>B |
AF DF | EF DF | AF AB | d2 d :|
|: A |d2 fd | ef dB | AF AB | e2 dB |
[1 d2 fd | ef dB | AF AB | d3 :|
[2 df f/e/f/g/ | af f>g| af ef | d3 ||


Tune 2039	Setting 15440

